!!!!SEGMENT: pl-kk--kk-i-636--002-011_anonim--in-parasceve-responsorium-8vum.krn
!!!cenid: 18xx:4545
!!!COM: Anonim
!!!COM-rismID: pe30004985
!!!CDT:
!!!CNT:
!!!OPR: In Parasceve
!!!OTL: Responsorium 8vum
!!!OMV: 011
!!!PDT:
!!!AGN: Sacred
!!!YEC: Copyright 2022 Narodowy Instytut Fryderyka Chopina (https://polishscores.org)
!!!YEM: License CC-BY-4.0 (https://creativecommons.org/licenses/by/4.0)
!!!SMS-siglum: PL-Kk
!!!SMS-shelfmark: Kk.I.636
!!!SMS-variant:
!!!SMS-altvar:
!!!SMS-shelfwork: 002-011 M
!!!NIFC-rismSourceID: 1001216440
!!!NIFC-rismChildID: 1001217600
!!!NIFC-islandoraID: pl-kk:40786
!!!URL-pdf-islandora: https://repozytorium.nifc.pl/islandora/object/pl-kk%3A40786/datastream/PDF/view
!!!URL-scan: https://polish.musicsources.pl/pl/lokalizacje/galeria/rekopisy/7271/1 @EN{Scan on Polish Music Sources Website} @PL{Skany w portalu Dziedzictwo Muzyki Polskiej w otwartym dostępie}
!!!IIIF:
!!!ONB-nifc: UWAGA: Lamentacje i Responsoria In Parasceve na skanach: S – 8-14, A – 31-37,T – 53-60, B – 78-86. Każda Lamentacja i Responsorium to oddzielne pliki.
!!!AIN: 1 alto 1 bass 1 soprn 1 tenor
!!!key:
**kern	**text	**kern	**text	**kern	**text	**kern	**text
*part4	*part4	*part3	*part3	*part2	*part2	*part1	*part1
*staff4	*staff4	*staff3	*staff3	*staff2	*staff2	*staff1	*staff1
*I"Basso	*	*I"Tenore	*	*I"Alto	*	*I"Soprano.	*
*I'B.	*	*I'T.	*	*I'A.	*	*I'S.	*
*Ibass	*	*Itenor	*	*Ialto	*	*Isoprn	*
*ICvox	*	*ICvox	*	*ICvox	*	*ICvox	*
*clefF4	*	*clefC4	*	*clefC3	*	*clefC1	*
*k[f#c#g#d#]	*	*k[f#c#g#d#]	*	*k[f#c#g#d#]	*	*k[f#c#g#d#]	*
*E:	*	*E:	*	*E:	*	*E:	*
*M4/4	*	*M4/4	*	*M4/4	*	*M4/4	*
*met(c)	*	*met(c)	*	*met(c)	*	*met(c)	*
=1	=1	=1	=1	=1	=1	=1	=1
*2\right	*	*2\right	*	*2\right	*	*2\right	*
2E\	Je-	2G#/	Je-	2e\	Je-	2b\	Je-
4E\	-sum	4G#/	-sum	4e\	-sum	4b\	-sum
4E\	tra-	4B/	tra-	4e\	tra-	4g#\	tra-
!LO:LB:g=original	!	!	!	!	!	!	!
=2	=2	=2	=2	=2	=2	=2	=2
4E\	-di-	4G#/	-di-	4e\	-di-	4e/	-di-
4E\	-dit	4G#/	-dit	4e\	-dit	4e/	-dit
4E\	im-	2B\	im-	2e\	im-	2g#\	im-
4E\	-pi-	.	.	.	.	.	.
!	!	!LO:LB:g=original	!	!LO:LB:g=original	!	!LO:LB:g=original	!
=3	=3	=3	=3	=3	=3	=3	=3
2D#\	-us,	4B\	-pi-	4f#\	.	4a\	.
.	.	4B\	-us	4f#\	-pi-	4a\	-pi-
2D#\	Prin-	2B\	Prin-	4f#\	-us	4cc#\	-us
.	.	.	.	4f#\	Prin-	4b\	Prin-
=4	=4	=4	=4	=4	=4	=4	=4
4.E\	-ci-	4B\	-ci-	4f#\	-ci-	4a\	-ci-
.	.	4B\	-pi-	4e\	-pi-	4g#\	-pi-
8E\	-pi-	.	.	.	.	.	.
2BB/	-bus	2B\	-bus	2d#\	-bus	2f#/	-bus
=5	=5	=5	=5	=5	=5	=5	=5
4C#/	Sa-	4G#/	Sa-	4e\	Sa-	4e/	Sa-
4c#\	-cer-	4c#\	-cer-	4e\	-cer-	4f#/	-cer-
!LO:LB:g=original	!	!	!	!	!	!	!
4B\	-do-	4B\	-do-	4e\	-do-	4g#\	-do-
4A\	-tum	4c#\	-tum	4e\	-tum	4a\	-tum
!	!	!	!	!	!	!LO:LB:g=original	!
=6	=6	=6	=6	=6	=6	=6	=6
4G#\	et	2B\	et	4e\	et	4b\	et
4F#\	.	.	.	4a\	.	8cc#\L	.
.	.	.	.	.	.	8dd#\J	.
4E\	se-	4B\	se-	4g#\	se-	4ee\	se-
4D#\	-ni-	4B\	-ni-	4g#\	-ni-	4ee\	-ni-
!	!	!LO:LB:g=original	!	!LO:PB:g=original	!	!	!
=7	=7	=7	=7	=7	=7	=7	=7
2C#/	-o-	2A#X\	-o-	2f#\	-o-	2ee\	-o-
4C#/	-ri-	4A#\	-ri-	4f#\	-ri-	4dd#\	-ri-
4C#/	-bus	4A#\	-bus	4f#\	-bus	4cc#\	-bus
=8	=8	=8	=8	=8	=8	=8	=8
2D#\	po-	4B\	po-	2f#\	po-	1b	po-
.	.	4An\	.	.	.	.	.
2E\	.	2G#/	.	4e\	.	.	.
.	.	.	.	4d#\	.	.	.
!LO:LB:g=original	!	!	!	!	!	!	!
=9	=9	=9	=9	=9	=9	=9	=9
2F#\	.	2A\	.	2c#\	.	4b\	.
.	.	.	.	.	.	4a\	.
4.BB/	-pu-	2B\	-pu-	4d#\	.	4g#\	.
.	.	.	.	4d#\	-pu-	4f#\	-pu-
8BB/	-li	.	.	.	.	.	.
!	!	!	!	!	!	!LO:LB:g=original	!
=10	=10	=10	=10	=10	=10	=10	=10
2E\	.	2B\	-li.	2e\	-li,	2g#\	-li,
2r	.	2r	.	2r	.	2r	.
=11	=11	=11	=11	=11	=11	=11	=11
2r	.	2r	.	2r	.	2r	.
4BB/	Pe-	4F#/	Pe-	4d#\	Pe-	4f#/	Pe-
4BB/	-trus	4F#/	-trus	4d#\	-trus	4f#/	-trus
!	!	!	!	!LO:LB:g=original	!	!	!
=12	=12	=12	=12	=12	=12	=12	=12
2AA#X/	au-	2c#\	au-	2e\	au-	4g#/	a-
.	.	.	.	.	.	4f#/	-u-
2AA#/	-tem	2c#\	-tem	2e\	-tem	2f#/	-tem
!LO:LB:g=original	!	!LO:LB:g=original	!	!	!	!	!
=13	=13	=13	=13	=13	=13	=13	=13
4r	.	4r	.	4d#\	se-	4f#/	se-
8BB/	se-	8d#\	se-	4d#\	-que-	4f#/	-que-
8BB/	-que-	8d#\	-que-	.	.	.	.
4BB/	-ba-	4d#\	-ba-	4d#\	-ba-	4f#/	-ba-
8BB/	-tur	8d#\	-tur	8d#\	-tur	8f#/	-tur
8BB/	a	8d#\	a	8d#\	a	8f#/	a
!	!	!	!	!	!	!LO:LB:g=original	!
=14	=14	=14	=14	=14	=14	=14	=14
2BB#X/	lon-	2d#\	lon-	2f#\	lon-	4a\	lon-
.	.	.	.	.	.	4g#\	.
2BB#/	-ge	2d#\	-ge,	2f#\	-ge,	2g#\	-ge
=15	=15	=15	=15	=15	=15	=15	=15
2.C#/	ut	2.c#\	ut	2.e\	ut	2.g#\	ut
4C#/	vi-	4c#\	vi-	4e\	vi-	4g#\	vi-
=16	=16	=16	=16	=16	=16	=16	=16
2D\	-de-	2B#X\	-de-	2f#\	-de-	2g#\	-de-
2D\	-ret	2B#\	-ret	2f#\	-ret	2g#\	-ret
!LO:PB:g=original	!	!	!	!LO:LB:g=original	!	!	!
=17	=17	=17	=17	=17	=17	=17	=17
1E	fi-	1c#	fi-	1e	fi-	1g#	fi-
=18	=18	=18	=18	=18	=18	=18	=18
1G#	-nem,	1dn	-nem,	1e	-nem,	1b	-nem,
!	!	!LO:LB:g=original	!	!	!	!LO:LB:g=original	!
=19	=19	=19	=19	=19	=19	=19	=19
4r	.	4r	.	4r	.	4r	.
2A\	ad-	2c#\	ad-	2e\	ad-	2cc#\	ad-
4A\	-du-	4c#\	-du-	4e\	-du-	4cc#\	-du-
=20	=20	=20	=20	=20	=20	=20	=20
2A\	-xe-	2c#\	-xe-	2e\	-xe-	4.cc#\	-xe-
.	.	.	.	.	.	8a\	.
2A\	-runt	2c#\	-runt	2e\	-runt	2f#/	-runt
=21	=21	=21	=21	=21	=21	=21	=21
4r	.	4r	.	4r	.	4r	.
4A\	e-	4d#X\	e-	4f#\	e-	4cc#\	e-
4A\	-um	4d#\	-um	4f#\	-um	4cc#\	-um
4A\	ad	4d#\	ad	4f#\	ad	4cc#\	ad
!LO:LB:g=original	!	!	!	!LO:LB:g=original	!	!	!
=22	=22	=22	=22	=22	=22	=22	=22
2A\	Cai-	2d#\	Cai-	2f#\	Cai-	4.cc#\	Ca-
.	.	.	.	.	.	8a\	-i-
!	!	!	!	!	!	!LO:TX:b:t=V.S.	!
2A\	-fam	2d#\	-fam	2f#\	-fam	2f#/	-fam,
!	!	!	!	!	!	!LO:PB:g=original	!
=23	=23	=23	=23	=23	=23	=23	=23
2G#\	prin-	2e\	Prin-	2b\	Prin-	2b\	Prin-
4A\	-ci-	4e\	-ci-	4a\	-ci-	4ccn\	-ci-
4A\	-pem	4e\	-pem	4a\	-pem	4cc\	-pem
=24	=24	=24	=24	=24	=24	=24	=24
2A#X\	Sa-	2e\	sa-	2gn\	Sa-	2cc#X\	Sa-
2B\	-cer-	2e\	-cer-	2g\	-cer-	2b\	-cer-
!	!	!LO:LB:g=original	!	!	!	!	!
=25	=25	=25	=25	=25	=25	=25	=25
4cn\	-do-	4e\	-do-	4gn\	-do-	4a#X\	-do-
4c\	-tum	4e\	-tum,	4g\	-tum,	4a#\	-tum,
4c\	u-	4e\	u-	4g\	u-	4a#\	u-
4c\	-bi	4e\	-bi	4g\	-bi	4ee\	-bi
!LO:LB:g=original	!	!	!	!LO:LB:g=original	!	!	!
=26	=26	=26	=26	=26	=26	=26	=26
2cn\	Scri-	4e\	Scri-	2gn\	scri-	2ee\	Scri-
.	.	4e\	-be	.	.	.	.
4c\	-bae	2e\	et	4g\	-bae	4ee\	-bae
4c\	et	.	.	4g\	et	4ee\	et
!	!	!	!	!	!	!LO:LB:g=original	!
=27	=27	=27	=27	=27	=27	=27	=27
2B\	Pha-	2f#\	Pha-	2a\	Pha-	2dd#\	Pha-
2B\	-ri-	2e\	-ri-	2gn\	-ri-	2ee\	-ri-
=28	=28	=28	=28	=28	=28	=28	=28
2B\	-se-	2e\	-se-	2gn\	-se-	2ee\	-se-
2BB/	-i	2e\	-i	2g\	-i	2b\	-i
=29	=29	=29	=29	=29	=29	=29	=29
2.BB/	con-	2.d#\	con-	2.f#\	con-	2.cc#\	con-
4BB/	-ve-	4d#\	-ve-	4f#\	-ve-	4b\	-ve-
=30	=30	=30	=30	=30	=30	=30	=30
1BB	-ne-	2F#/	-ne-	1d#	-ne-	2a\	-ne-
.	.	2A\	.	.	.	2f#\	.
!LO:LB:g=original	!	!LO:LB:g=original	!	!LO:LB:g=original	!	!	!
=31	=31	=31	=31	=31	=31	=31	=31
1E	-runt,	1G#	-runt,	1e	-runt,	1e	-runt
=32	=32	=32	=32	=32	=32	=32	=32
!	!	!	!	!	!	!LO:TX:a:t=1	!
2C#/	Pe-	2G#/	Pe-	2e\	Pe-	1r	.
2C#/	-trus	2G#/	-trus	2e\	-trus	.	.
!	!	!	!	!	!	!LO:LB:g=original	!
=33	=33	=33	=33	=33	=33	=33	=33
2AA/	se-	2c#\	se-	2e\	se-	2f#/	se-
2AA/	-que-	2A\	-que-	2e\	-que-	2f#/	-que-
=34	=34	=34	=34	=34	=34	=34	=34
2BB/	-ba-	2A\	-ba-	2d#\	-ba-	2f#/	-ba-
4BB/	-tur	4F#/	-tur	4d#\	-tur	4.a\	-tur
4BB/	a	4F#/	a	4d#\	a	.	.
.	.	.	.	.	.	8g#\	a
=35	=35	=35	=35	=35	=35	=35	=35
2E\	lon-	2G#/	lon-	2e\	lon-	2e/	lon-
2E\	-ge,	2G#/	-ge	2e\	-ge	4e/	-ge
.	.	.	.	.	.	4r	.
!LO:LB:g=original	!	!	!	!	!	!	!
=36	=36	=36	=36	=36	=36	=36	=36
!	!	!	!	!	!	!LO:TX:a:t=1	!
1C#	ut	1G#	ut	1e	ut	1r	.
=37	=37	=37	=37	=37	=37	=37	=37
2AA/	.	2.c#\	ut	2.e\	.	2.f#/	ut
2AA/	vi-	.	.	.	.	.	.
.	.	4A\	vi-	4e\	vi-	4f#/	vi-
!	!	!LO:LB:g=original	!	!LO:LB:g=original	!	!LO:LB:g=original	!
=38	=38	=38	=38	=38	=38	=38	=38
2.BB/	-de-	2A\	-de-	2.d#\	-de-	2f#/	-de-
.	.	2F#/	-ret	.	.	4.a\	.
4BB/	-ret	.	.	4d#\	-ret	.	.
.	.	.	.	.	.	8g#\	-ret
=39	=39	=39	=39	=39	=39	=39	=39
1EE	fi-	1G#	fi-	1e	fi-	1e	fi-
=40	=40	=40	=40	=40	=40	=40	=40
1EE	.	1G#	.	1e	.	1e	.
=41	=41	=41	=41	=41	=41	=41	=41
1EE	.	1G#	.	1e	.	1e	.
=42	=42	=42	=42	=42	=42	=42	=42
2EE/	-nem.	2G#/	-nem.	2e\	-nem.	2e/	-nem.
2r	.	2r	.	2r	.	2r	.
==	==	==	==	==	==	==	==
*-	*-	*-	*-	*-	*-	*-	*-
!!!system-decoration: [(s1,s2,s3,s4)]
!!!ENC: Berenika Jozajtis
!!!END: 2023-11-16
!!!ENC: Leszek Kubiak
!!!END: 2024-06-11
